svgs/sharp-regular/peso-sign.svg

<svg xmlns="http://www.w3.org/2000/svg" viewBox="0 0 384 512"><!--! Font Awesome Pro 6.6.0 by @fontawesome - https://fontawesome.com License - https://fontawesome.com/license (Commercial License) Copyright 2024 Fonticons, Inc. --><path d="M72 32L48 32l0 24 0 72L0 128l0 48 48 0 0 48L0 224l0 48 48 0 0 72 0 112 0 24 48 0 0-24 0-88 88 0c67 0 124.9-39.2 151.8-96l48.2 0 0-48-33.7 0c1.1-7.8 1.7-15.9 1.7-24s-.6-16.2-1.7-24l33.7 0 0-48-48.2 0C308.9 71.2 251 32 184 32L72 32zm208 96L96 128l0-48 88 0c39.3 0 74.1 18.9 96 48zM96 176l205.6 0c1.6 7.8 2.4 15.8 2.4 24s-.8 16.2-2.4 24L96 224l0-48zm184 96c-21.9 29.1-56.7 48-96 48l-88 0 0-48 184 0z"/></svg>

<svg xmlns="http://www.w3.org/2000/svg" viewBox="0 0 384 512"><!--! Font Awesome Pro 6.4.0 by @fontawesome - https://fontawesome.com License - https://fontawesome.com/license (Commercial License) Copyright 2023 Fonticons, Inc. --><path d="M72 32H48V56v72H0v48H48v48H0v48H48v72V456v24H96V456 368h88c67 0 124.9-39.2 151.8-96H384V224H350.3c1.1-7.8 1.7-15.9 1.7-24s-.6-16.2-1.7-24H384V128H335.8C308.9 71.2 251 32 184 32H72zm208 96H96V80h88c39.3 0 74.1 18.9 96 48zM96 176H301.6c1.6 7.8 2.4 15.8 2.4 24s-.8 16.2-2.4 24H96V176zm184 96c-21.9 29.1-56.7 48-96 48H96V272H280z"/></svg>
